Dominus_Funeral/22/categories/applications-education.svg

<svg xmlns="http://www.w3.org/2000/svg" width="24" height="24" version="1"><path d="M19.42 1a.35.35 0 0 0-.34.35l.03 2.01c-.77.8-2.01 2.08-3.48 3.47l-.05-.94h.06a.34.34 0 1 0-.05-.7l-.05.01-.03-.7.3-.07a.34.34 0 1 0-.18-.67l-.15.04-.11-2.13a.34.34 0 0 0-.34-.33h-2.41c-.2 0-.35.17-.34.37l.08 1.44c-.74.39-1.69.9-2.7 1.51a31.04 31.04 0 0 0-4.54 3.22.34.34 0 0 0-.16 0l-2.4.7a.34.34 0 0 0-.17.1c-.1.01-.2.07-.27.16-1.65 2.6-.12 4.59 1.44 5.46 2.84 1.67 5.87.57 6.9.25a.34.34 0 0 0 .2-.52l-.13-.18.01-.04.65-2.24c.78-.6 1.57-1.25 2.34-1.92l1.85 4.17.68 3.36-.42 5.45c-.01.2.15.37.35.37h2.13c.18 0 .33-.14.34-.32l.35-4.81v-.09l-.67-3.66 3.72-6.77c.02-.04.04-.1.04-.14l.02-.37.3.03h.03a.34.34 0 0 0 .03-.68l-.32-.03.04-.7.24-.04a.34.34 0 1 0-.08-.68l-.11.01.2-3.39A.34.34 0 0 0 21.9 1zm1.13.54a.67.67 0 0 1 .66.66.67.67 0 0 1-.66.67.67.67 0 0 1-.67-.67.67.67 0 0 1 .67-.66zM14 1.86a.69.69 0 0 1 .68.69.69.69 0 0 1-.68.68.69.69 0 0 1-.7-.68.69.69 0 0 1 .7-.7zM12.4 3.9l.05.7-.29.07a.34.34 0 1 0 .18.66l.15-.04v.14l-.24.02a.34.34 0 0 0 .03.68h.02l.24-.02.08 1.43.03.12.59 1.33c-.78.68-1.59 1.34-2.39 1.96l-2.3-.33a.34.34 0 0 0-.33.14c-.11.02-.21.1-.26.21-.33.9-1.35 2.37-3.8 3.15-.73-1.3.52-2.83 1.1-3.23.16-.1.2-.31.1-.46.03-.05.04-.1.04-.16V8.56c2.1-1.9 5.12-3.65 7-4.65zm6.72.43v.75l-.3.04a.34.34 0 0 0 .07.68l.25-.03v.11l-.24-.02a.34.34 0 0 0-.07.69l.32.02v.18l-2.09 4.06-1.24-3.23a99.35 99.35 0 0 0 3.3-3.25zm-15 4.5l-.46.53-.45-.27zm.6.38v.79l-.46-.28.45-.5zm4.16 2.15l1.2.17-.74.52zm1.4.87l-.25.86-.31-.47.56-.39z" fill="#1a1a1a"/></svg>

<?xml version="1.0" encoding="UTF-8" standalone="no"?>
<svg
   xmlns:dc="http://purl.org/dc/elements/1.1/"
   xmlns:cc="http://creativecommons.org/ns#"
   xmlns:rdf="http://www.w3.org/1999/02/22-rdf-syntax-ns#"
   xmlns:svg="http://www.w3.org/2000/svg"
   xmlns="http://www.w3.org/2000/svg"
   xmlns:sodipodi="http://sodipodi.sourceforge.net/DTD/sodipodi-0.dtd"
   xmlns:inkscape="http://www.inkscape.org/namespaces/inkscape"
   width="24"
   height="24"
   version="1"
   id="svg4"
   sodipodi:docname="applications-education.svg"
   inkscape:version="0.92.4 (5da689c313, 2019-01-14)">
  <metadata
     id="metadata10">
    <rdf:RDF>
      <cc:Work
         rdf:about="">
        <dc:format>image/svg+xml</dc:format>
        <dc:type
           rdf:resource="http://purl.org/dc/dcmitype/StillImage" />
        <dc:title></dc:title>
      </cc:Work>
    </rdf:RDF>
  </metadata>
  <defs
     id="defs8" />
  <sodipodi:namedview
     pagecolor="#ffffff"
     bordercolor="#666666"
     borderopacity="1"
     objecttolerance="10"
     gridtolerance="10"
     guidetolerance="10"
     inkscape:pageopacity="0"
     inkscape:pageshadow="2"
     inkscape:window-width="1142"
     inkscape:window-height="480"
     id="namedview6"
     showgrid="false"
     inkscape:zoom="9.8333333"
     inkscape:cx="1.2711864"
     inkscape:cy="12"
     inkscape:window-x="0"
     inkscape:window-y="25"
     inkscape:window-maximized="0"
     inkscape:current-layer="svg4" />
  <path
     d="m 19.42,1 a 0.35,0.35 0 0 0 -0.34,0.35 l 0.03,2.01 C 18.34,4.16 17.1,5.44 15.63,6.83 L 15.58,5.89 h 0.06 A 0.35089172,0.35089172 0 1 0 15.59,5.19 L 15.54,5.2 15.51,4.5 15.81,4.43 A 0.34687894,0.34687894 0 1 0 15.63,3.76 L 15.48,3.8 15.37,1.67 A 0.34,0.34 0 0 0 15.03,1.34 h -2.41 c -0.2,0 -0.35,0.17 -0.34,0.37 l 0.08,1.44 c -0.74,0.39 -1.69,0.9 -2.7,1.51 a 31.04,31.04 0 0 0 -4.54,3.22 0.34,0.34 0 0 0 -0.16,0 l -2.4,0.7 A 0.34,0.34 0 0 0 2.39,8.68 C 2.29,8.69 2.19,8.75 2.12,8.84 0.47,11.44 2,13.43 3.56,14.3 c 2.84,1.67 5.87,0.57 6.9,0.25 a 0.34,0.34 0 0 0 0.2,-0.52 l -0.13,-0.18 0.01,-0.04 0.65,-2.24 c 0.78,-0.6 1.57,-1.25 2.34,-1.92 l 1.85,4.17 0.68,3.36 -0.42,5.45 c -0.01,0.2 0.15,0.37 0.35,0.37 h 2.13 c 0.18,0 0.33,-0.14 0.34,-0.32 l 0.35,-4.81 V 17.78 L 18.14,14.12 21.86,7.35 C 21.88,7.31 21.9,7.25 21.9,7.21 l 0.02,-0.37 0.3,0.03 h 0.03 A 0.34033072,0.34033072 0 0 0 22.28,6.19 L 21.96,6.16 22,5.46 22.24,5.42 A 0.34234486,0.34234486 0 1 0 22.16,4.74 l -0.11,0.01 0.2,-3.39 A 0.34,0.34 0 0 0 21.9,1 Z m 1.13,0.54 A 0.67,0.67 0 0 1 21.21,2.2 0.67,0.67 0 0 1 20.55,2.87 0.67,0.67 0 0 1 19.88,2.2 0.67,0.67 0 0 1 20.55,1.54 Z M 14,1.86 A 0.69,0.69 0 0 1 14.68,2.55 0.69,0.69 0 0 1 14,3.23 0.69,0.69 0 0 1 13.3,2.55 0.69,0.69 0 0 1 14,1.85 Z m -1.6,2.04 0.05,0.7 -0.29,0.07 a 0.34205263,0.34205263 0 1 0 0.18,0.66 l 0.15,-0.04 v 0.14 l -0.24,0.02 a 0.34033072,0.34033072 0 0 0 0.03,0.68 h 0.02 l 0.24,-0.02 0.08,1.43 0.03,0.12 0.59,1.33 c -0.78,0.68 -1.59,1.34 -2.39,1.96 l -2.3,-0.33 a 0.34,0.34 0 0 0 -0.33,0.14 c -0.11,0.02 -0.21,0.1 -0.26,0.21 -0.33,0.9 -1.35,2.37 -3.8,3.15 -0.73,-1.3 0.52,-2.83 1.1,-3.23 0.16,-0.1 0.2,-0.31 0.1,-0.46 0.03,-0.05 0.04,-0.1 0.04,-0.16 V 8.56 c 2.1,-1.9 5.12,-3.65 7,-4.65 z m 6.72,0.43 v 0.75 l -0.3,0.04 A 0.34179672,0.34179672 0 0 0 18.89,5.8 L 19.14,5.77 V 5.88 L 18.9,5.86 a 0.34677082,0.34677082 0 0 0 -0.07,0.69 l 0.32,0.02 v 0.18 l -2.09,4.06 -1.24,-3.23 a 99.35,99.35 0 0 0 3.3,-3.25 z M 4.12,8.83 3.66,9.36 3.21,9.09 Z m 0.6,0.38 V 10 L 4.26,9.72 4.71,9.22 Z m 4.16,2.15 1.2,0.17 -0.74,0.52 z m 1.4,0.87 -0.25,0.86 -0.31,-0.47 z"
     id="path2"
     inkscape:connector-curvature="0"
     style="fill:#1a1a1a" />
</svg>
